icons/midnadark/actions/24/office-chart-ring.svg

<?xml version="1.0" encoding="UTF-8" standalone="no"?>
<!-- Created with Inkscape (http://www.inkscape.org/) -->

<svg
   xmlns:dc="http://purl.org/dc/elements/1.1/"
   xmlns:cc="http://creativecommons.org/ns#"
   xmlns:rdf="http://www.w3.org/1999/02/22-rdf-syntax-ns#"
   xmlns:svg="http://www.w3.org/2000/svg"
   xmlns="http://www.w3.org/2000/svg"
   xmlns:xlink="http://www.w3.org/1999/xlink"
   xmlns:sodipodi="http://sodipodi.sourceforge.net/DTD/sodipodi-0.dtd"
   xmlns:inkscape="http://www.inkscape.org/namespaces/inkscape"
   width="24"
   height="24"
   id="svg3869"
   version="1.1"
   inkscape:version="0.91 r13725"
   sodipodi:docname="office-chart-ring.svg">
  <defs
     id="defs3871">
    <clipPath
       id="clipPath4160"
       clipPathUnits="userSpaceOnUse">
      <rect
         y="1023.3622"
         x="7"
         height="1"
         width="1"
         id="rect4162"
         style="opacity:1;fill:#f2f2f2;fill-opacity:1;stroke:none;stroke-opacity:1" />
    </clipPath>
    <linearGradient
       gradientTransform="translate(0,-1.9999941)"
       inkscape:collect="always"
       xlink:href="#linearGradient4021-3"
       id="linearGradient4123"
       gradientUnits="userSpaceOnUse"
       x1="3"
       y1="1045.3622"
       x2="15"
       y2="1045.3622" />
    <linearGradient
       id="linearGradient4021-3">
      <stop
         id="stop4023-0"
         offset="0"
         style="stop-color:#b3b3b3;stop-opacity:1;" />
      <stop
         id="stop4025-2"
         offset="1"
         style="stop-color:#4d4d4d;stop-opacity:1;" />
    </linearGradient>
    <clipPath
       id="clipPath4160-8"
       clipPathUnits="userSpaceOnUse">
      <rect
         y="1023.3622"
         x="7"
         height="1"
         width="1"
         id="rect4162-9"
         style="opacity:1;fill:#f2f2f2;fill-opacity:1;stroke:none;stroke-opacity:1" />
    </clipPath>
  </defs>
  <sodipodi:namedview
     id="base"
     pagecolor="#ffffff"
     bordercolor="#666666"
     borderopacity="1.0"
     inkscape:pageopacity="0.0"
     inkscape:pageshadow="2"
     inkscape:zoom="22.627416"
     inkscape:cx="-3.1031463"
     inkscape:cy="10.286893"
     inkscape:document-units="px"
     inkscape:current-layer="layer1"
     showgrid="true"
     fit-margin-top="0"
     fit-margin-left="0"
     fit-margin-right="0"
     fit-margin-bottom="0"
     inkscape:window-width="1366"
     inkscape:window-height="633"
     inkscape:window-x="0"
     inkscape:window-y="33"
     inkscape:window-maximized="1"
     inkscape:showpageshadow="false"
     inkscape:snap-bbox="true"
     inkscape:object-nodes="true">
    <inkscape:grid
       type="xygrid"
       id="grid4132" />
    <sodipodi:guide
       position="4,18"
       orientation="18,0"
       id="guide4138" />
    <sodipodi:guide
       position="5,3"
       orientation="0,18"
       id="guide4140" />
    <sodipodi:guide
       position="20,2.0000174"
       orientation="-18,0"
       id="guide4142" />
    <sodipodi:guide
       position="2,21"
       orientation="0,-18"
       id="guide4144" />
    <sodipodi:guide
       position="3,19.000017"
       orientation="16,0"
       id="guide4146" />
    <sodipodi:guide
       position="2,4"
       orientation="0,16"
       id="guide4148" />
    <sodipodi:guide
       position="21,20"
       orientation="-16,0"
       id="guide4150" />
    <sodipodi:guide
       position="2,20"
       orientation="0,-16"
       id="guide4152" />
  </sodipodi:namedview>
  <metadata
     id="metadata3874">
    <rdf:RDF>
      <cc:Work
         rdf:about="">
        <dc:format>image/svg+xml</dc:format>
        <dc:type
           rdf:resource="http://purl.org/dc/dcmitype/StillImage" />
        <dc:title />
      </cc:Work>
    </rdf:RDF>
  </metadata>
  <g
     inkscape:label="Capa 1"
     inkscape:groupmode="layer"
     id="layer1"
     transform="translate(-326,-532.3622)">
    <g
       transform="translate(-224.28571,-74.28568)"
       id="layer1-0"
       inkscape:label="Capa 1"
       style="fill:#ffffff;fill-opacity:1">
      <path
         id="rect4144"
         transform="translate(551.28571,607.64788)"
         d="M 10,3.0683594 C 6.0443281,3.5584193 3,6.907464 3,11 c 0,4.092536 3.0443281,7.441581 7,7.931641 l 0,-1.009766 C 6.6006429,17.438059 4,14.537215 4,11 4,7.4627852 6.6006429,4.5619415 10,4.078125 l 0,-1.0097656 z m 2,0 0,1.0097656 C 15.399357,4.5619415 18,7.4627852 18,11 c 0,3.537215 -2.600643,6.438059 -6,6.921875 l 0,1.009766 C 15.955672,18.441581 19,15.092536 19,11 19,6.907464 15.955672,3.5584193 12,3.0683594 Z"
         style="opacity:1;fill:#ffffff;fill-opacity:1;stroke:none;stroke-width:2.79999995;stroke-miterlimit:4;stroke-dasharray:none;stroke-opacity:0.55026455"
         inkscape:connector-curvature="0" />
      <path
         id="rect4149"
         transform="translate(551.28571,607.64788)"
         d="m 11,5 c -3.324,0 -6,2.676 -6,6 0,3.324 2.676,6 6,6 3.324,0 6,-2.676 6,-6 0,-0.881776 -0.192482,-1.716033 -0.53125,-2.46875 L 15.6875,9.3125 C 15.877228,9.8417746 16,10.403857 16,11 c 0,2.77 -2.23,5 -5,5 -2.77,0 -5,-2.23 -5,-5 0,-2.77 2.23,-5 5,-5 1.641573,0 3.079708,0.7951359 3.990234,2.0097656 L 15.712891,7.2871094 C 14.616004,5.8947115 12.918061,5 11,5 Z"
         style="opacity:1;fill:#ffffff;fill-opacity:1;stroke:none;stroke-width:2.79999995;stroke-miterlimit:4;stroke-dasharray:none;stroke-opacity:0.55026455"
         inkscape:connector-curvature="0" />
      <path
         id="rect4154"
         transform="translate(551.28571,607.64788)"
         d="M 11,7 C 9.892,7 8.8929219,7.4469219 8.1699219,8.1699219 L 8.8769531,8.8769531 C 9.4192031,8.3347031 10.169,8 11,8 c 1.662,0 3,1.338 3,3 0,1.662 -1.338,3 -3,3 C 9.338,14 8,12.662 8,11 8,10.698149 8.056477,10.413074 8.1386719,10.138672 L 7.3574219,9.3574219 C 7.1318349,9.8589963 7,10.412506 7,11 c 0,2.216 1.784,4 4,4 2.216,0 4,-1.784 4,-4 0,-2.216 -1.784,-4 -4,-4 z"
         style="opacity:1;fill:#ffffff;fill-opacity:1;stroke:none;stroke-width:2.79999995;stroke-miterlimit:4;stroke-dasharray:none;stroke-opacity:0.55026455"
         inkscape:connector-curvature="0" />
    </g>
  </g>
</svg>

<svg xmlns="http://www.w3.org/2000/svg" viewBox="0 0 24 24"><defs><clipPath><path fill="#f2f2f2" d="m7 1023.36h1v1h-1z"/></clipPath><clipPath><path fill="#f2f2f2" d="m7 1023.36h1v1h-1z"/></clipPath></defs><g transform="translate(.996.998)" fill="#fff"><path d="m10 3.068c-3.956.49-7 3.839-7 7.932 0 4.093 3.044 7.442 7 7.932v-1.01c-3.399-.484-6-3.385-6-6.922 0-3.537 2.601-6.438 6-6.922v-1.01m2 0v1.01c3.399.484 6 3.385 6 6.922 0 3.537-2.601 6.438-6 6.922v1.01c3.956-.49 7-3.839 7-7.932 0-4.093-3.044-7.442-7-7.932"/><path d="m11 5c-3.324 0-6 2.676-6 6 0 3.324 2.676 6 6 6 3.324 0 6-2.676 6-6 0-.882-.192-1.716-.531-2.469l-.781.781c.19.529.313 1.091.313 1.688 0 2.77-2.23 5-5 5-2.77 0-5-2.23-5-5 0-2.77 2.23-5 5-5 1.642 0 3.08.795 3.99 2.01l.723-.723c-1.097-1.392-2.795-2.287-4.713-2.287"/><path d="m11 7c-1.108 0-2.107.447-2.83 1.17l.707.707c.542-.542 1.292-.877 2.123-.877 1.662 0 3 1.338 3 3 0 1.662-1.338 3-3 3-1.662 0-3-1.338-3-3 0-.302.056-.587.139-.861l-.781-.781c-.226.502-.357 1.055-.357 1.643 0 2.216 1.784 4 4 4 2.216 0 4-1.784 4-4 0-2.216-1.784-4-4-4"/></g></svg>
